data/icons/org.gabmus.notorious.svg

<?xml version="1.0" encoding="UTF-8" standalone="no"?>
<svg
   xmlns:dc="http://purl.org/dc/elements/1.1/"
   xmlns:cc="http://creativecommons.org/ns#"
   xmlns:rdf="http://www.w3.org/1999/02/22-rdf-syntax-ns#"
   xmlns:svg="http://www.w3.org/2000/svg"
   xmlns="http://www.w3.org/2000/svg"
   xmlns:xlink="http://www.w3.org/1999/xlink"
   xmlns:sodipodi="http://sodipodi.sourceforge.net/DTD/sodipodi-0.dtd"
   xmlns:inkscape="http://www.inkscape.org/namespaces/inkscape"
   inkscape:version="1.0 (4035a4fb49, 2020-05-01)"
   sodipodi:docname="org.gabmus.notorious.svg"
   width="128"
   height="128"
   id="svg11300"
   version="1.0"
   style="display:inline;enable-background:new"
   viewBox="0 0 128 128">
  <sodipodi:namedview
     inkscape:snap-intersection-paths="true"
     inkscape:snap-bbox-midpoints="true"
     inkscape:bbox-paths="true"
     inkscape:snap-bbox-edge-midpoints="true"
     inkscape:snap-bbox="true"
     inkscape:current-layer="svg11300"
     inkscape:window-maximized="0"
     inkscape:window-y="299"
     inkscape:window-x="595"
     inkscape:cy="74.049274"
     inkscape:cx="83.490054"
     inkscape:zoom="4"
     showgrid="false"
     id="namedview59"
     inkscape:window-height="996"
     inkscape:window-width="1863"
     inkscape:pageshadow="2"
     inkscape:pageopacity="0"
     guidetolerance="10"
     gridtolerance="10"
     objecttolerance="10"
     borderopacity="1"
     bordercolor="#666666"
     pagecolor="#ffffff" />
  <title
     id="title4162">Adwaita Icon Template</title>
  <defs
     id="defs3">
    <linearGradient
       id="linearGradient1038">
      <stop
         id="stop1026"
         offset="0"
         style="stop-color:#1a5fb4;stop-opacity:1" />
      <stop
         style="stop-color:#3584e4;stop-opacity:1"
         offset="0.04545454"
         id="stop1028" />
      <stop
         style="stop-color:#1a5fb4;stop-opacity:1"
         offset="0.09090909"
         id="stop1030" />
      <stop
         style="stop-color:#1a5fb4;stop-opacity:1"
         offset="0.90909088"
         id="stop1032" />
      <stop
         id="stop1034"
         offset="0.95454544"
         style="stop-color:#3584e4;stop-opacity:1" />
      <stop
         id="stop1036"
         offset="1"
         style="stop-color:#1a5fb4;stop-opacity:1" />
    </linearGradient>
    <clipPath
       clipPathUnits="userSpaceOnUse"
       id="clipPath2213">
      <rect
         style="display:inline;opacity:1;vector-effect:none;fill:none;fill-opacity:1;stroke:#000000;stroke-width:1;stroke-linecap:butt;stroke-linejoin:miter;stroke-miterlimit:4;stroke-dasharray:none;stroke-dashoffset:0;stroke-opacity:1;marker:none;marker-start:none;marker-mid:none;marker-end:none;paint-order:normal;enable-background:new"
         id="rect2215"
         width="16"
         height="56"
         x="160"
         y="-188"
         rx="8"
         ry="8" />
    </clipPath>
    <linearGradient
       id="linearGradient1005">
      <stop
         id="stop1001"
         offset="0"
         style="stop-color:#d0bb8e;stop-opacity:1" />
      <stop
         id="stop1003"
         offset="1"
         style="stop-color:#ffffff;stop-opacity:1" />
    </linearGradient>
    <linearGradient
       id="linearGradient1351-3">
      <stop
         style="stop-color:#d5d3cf;stop-opacity:1"
         offset="0"
         id="stop1347" />
      <stop
         style="stop-color:#ffffff;stop-opacity:1"
         offset="1"
         id="stop1349-6" />
    </linearGradient>
    <linearGradient
       xlink:href="#linearGradient1038"
       id="linearGradient1159"
       x1="27.99999"
       y1="-276"
       x2="115.99999"
       y2="-276"
       gradientUnits="userSpaceOnUse"
       gradientTransform="translate(-135.99999,170)" />
    <linearGradient
       xlink:href="#linearGradient1005"
       id="linearGradient1103"
       gradientUnits="userSpaceOnUse"
       x1="128.81717"
       y1="-97.698288"
       x2="158.51802"
       y2="-127.39915"
       gradientTransform="matrix(0.07621224,-0.44419723,0.44419725,-0.07621223,77.725794,159.83807)" />
    <clipPath
       clipPathUnits="userSpaceOnUse"
       id="clipPath1609-7">
      <path
         id="path1611-5"
         d="m 252,116 28,-28 v -8 h -36 v 36 z"
         style="fill:#e74747;stroke:none;stroke-width:0.25px;stroke-linecap:butt;stroke-linejoin:miter;stroke-opacity:1" />
    </clipPath>
    <linearGradient
       xlink:href="#linearGradient1351-3"
       id="linearGradient1130"
       gradientUnits="userSpaceOnUse"
       gradientTransform="matrix(0.25,0,0,0.25,180,83)"
       x1="344"
       y1="76"
       x2="340"
       y2="72" />
    <clipPath
       clipPathUnits="userSpaceOnUse"
       id="clipPath1062">
      <rect
         clip-path="none"
         ry="8"
         rx="8"
         y="-116"
         x="-108"
         height="108"
         width="88"
         id="rect1064"
         style="opacity:1;vector-effect:none;fill:#f6f5f4;fill-opacity:1;stroke:none;stroke-width:13.71876526;stroke-linecap:butt;stroke-linejoin:miter;stroke-miterlimit:4;stroke-dasharray:none;stroke-dashoffset:0;stroke-opacity:1;marker:none;marker-start:none;marker-mid:none;marker-end:none;paint-order:normal"
         transform="scale(-1)" />
    </clipPath>
  </defs>
  <metadata
     id="metadata4">
    <rdf:RDF>
      <cc:Work
         rdf:about="">
        <dc:format>image/svg+xml</dc:format>
        <dc:type
           rdf:resource="http://purl.org/dc/dcmitype/StillImage" />
        <dc:creator>
          <cc:Agent>
            <dc:title>GNOME Design Team</dc:title>
          </cc:Agent>
        </dc:creator>
        <dc:source />
        <cc:license
           rdf:resource="http://creativecommons.org/licenses/by-sa/4.0/" />
        <dc:title>Adwaita Icon Template</dc:title>
        <dc:subject>
          <rdf:Bag />
        </dc:subject>
        <dc:date />
        <dc:rights>
          <cc:Agent>
            <dc:title />
          </cc:Agent>
        </dc:rights>
        <dc:publisher>
          <cc:Agent>
            <dc:title />
          </cc:Agent>
        </dc:publisher>
        <dc:identifier />
        <dc:relation />
        <dc:language />
        <dc:coverage />
        <dc:description />
        <dc:contributor>
          <cc:Agent>
            <dc:title />
          </cc:Agent>
        </dc:contributor>
      </cc:Work>
      <cc:License
         rdf:about="http://creativecommons.org/licenses/by-sa/4.0/">
        <cc:permits
           rdf:resource="http://creativecommons.org/ns#Reproduction" />
        <cc:permits
           rdf:resource="http://creativecommons.org/ns#Distribution" />
        <cc:requires
           rdf:resource="http://creativecommons.org/ns#Notice" />
        <cc:requires
           rdf:resource="http://creativecommons.org/ns#Attribution" />
        <cc:permits
           rdf:resource="http://creativecommons.org/ns#DerivativeWorks" />
        <cc:requires
           rdf:resource="http://creativecommons.org/ns#ShareAlike" />
      </cc:License>
    </rdf:RDF>
  </metadata>
  <rect
     clip-path="none"
     ry="8"
     rx="8"
     y="-122"
     x="-108"
     height="40"
     width="88"
     id="rect1151"
     style="vector-effect:none;fill:url(#linearGradient1159);fill-opacity:1;stroke:none;stroke-width:13.7188;stroke-linecap:butt;stroke-linejoin:miter;stroke-miterlimit:4;stroke-dasharray:none;stroke-dashoffset:0;stroke-opacity:1;marker:none;marker-start:none;marker-mid:none;marker-end:none;paint-order:normal"
     transform="scale(-1)" />
  <g
     transform="translate(0,-172)"
     style="display:none"
     id="layer2">
    <g
       id="g9211"
       style="display:inline;enable-background:new">
      <rect
         style="display:inline;overflow:visible;visibility:visible;fill:#f0f0f0;fill-opacity:1;fill-rule:nonzero;stroke:none;stroke-width:0.5;marker:none;enable-background:accumulate"
         id="rect13805"
         width="128"
         height="128"
         x="9.2651362e-08"
         y="172" />
      <circle
         cx="64.000031"
         cy="236"
         r="59.504131"
         id="circle2892"
         style="display:inline;opacity:0.1;vector-effect:none;fill:none;fill-opacity:1;stroke:#000000;stroke-width:0.99;stroke-linecap:butt;stroke-linejoin:miter;stroke-miterlimit:4;stroke-dasharray:0.99, 0.99;stroke-dashoffset:0;stroke-opacity:1;marker:none;marker-start:none;marker-mid:none;marker-end:none;paint-order:normal;enable-background:new" />
      <rect
         ry="7.9292889"
         rx="8.701004"
         y="180.49496"
         x="20.495007"
         height="111.01005"
         width="87.009987"
         id="rect2894"
         style="display:inline;opacity:0.1;vector-effect:none;fill:none;fill-opacity:1;stroke:#000000;stroke-width:0.99;stroke-linecap:butt;stroke-linejoin:miter;stroke-miterlimit:4;stroke-dasharray:0.99, 0.99;stroke-dashoffset:0;stroke-opacity:1;marker:none;marker-start:none;marker-mid:none;marker-end:none;paint-order:normal;enable-background:new" />
      <rect
         ry="7.9238095"
         rx="7.9238095"
         y="184.49524"
         x="12.495266"
         height="103.00952"
         width="103.00952"
         id="rect2896"
         style="display:inline;opacity:0.1;vector-effect:none;fill:none;fill-opacity:1;stroke:#000000;stroke-width:0.99;stroke-linecap:butt;stroke-linejoin:miter;stroke-miterlimit:4;stroke-dasharray:0.99, 0.99;stroke-dashoffset:0;stroke-opacity:1;marker:none;marker-start:none;marker-mid:none;marker-end:none;paint-order:normal;enable-background:new" />
      <rect
         ry="8.701005"
         rx="7.9292889"
         y="200.49496"
         x="8.4950066"
         height="87.010048"
         width="111.01004"
         id="rect2898"
         style="display:inline;opacity:0.1;vector-effect:none;fill:none;fill-opacity:1;stroke:#000000;stroke-width:0.99;stroke-linecap:butt;stroke-linejoin:miter;stroke-miterlimit:4;stroke-dasharray:0.99, 0.99;stroke-dashoffset:0;stroke-opacity:1;marker:none;marker-start:none;marker-mid:none;marker-end:none;paint-order:normal;enable-background:new" />
      <path
         id="path2900"
         d="M 2.6203015e-5,288.99999 H 128.00003"
         style="display:inline;fill:none;stroke:#62a0ea;stroke-width:2;stroke-linecap:butt;stroke-linejoin:miter;stroke-miterlimit:4;stroke-dasharray:none;stroke-opacity:1;enable-background:new" />
    </g>
  </g>
  <rect
     transform="scale(-1)"
     style="vector-effect:none;fill:#241f31;fill-opacity:1;stroke:none;stroke-width:13.7188;stroke-linecap:butt;stroke-linejoin:miter;stroke-miterlimit:4;stroke-dasharray:none;stroke-dashoffset:0;stroke-opacity:1;marker:none;marker-start:none;marker-mid:none;marker-end:none;paint-order:normal"
     id="rect1161"
     width="88"
     height="108"
     x="-108"
     y="-116"
     rx="8"
     ry="8"
     clip-path="none" />
  <path
     d="M 23,59.360062 V 107.28621 C 23,110.48166 25.159845,113 27.900391,113 H 100.09961 C 102.84016,113 105,110.48166 105,107.28621 V 59.360062 Z"
     style="fill:#3d3846;stroke:none;stroke-width:3;stroke-miterlimit:4;stroke-dasharray:none;stroke-dashoffset:50;stroke-opacity:1;paint-order:fill markers stroke"
     id="rect1083" />
  <g
     style="display:inline;enable-background:new"
     id="g8005"
     clip-path="url(#clipPath2213)"
     transform="matrix(0.25,0,0,0.25,-374,30.04808)" />
  <g
     style="display:inline;enable-background:new"
     id="g8015"
     clip-path="url(#clipPath2213)"
     transform="matrix(0.25,0,0,0.25,-424,30.04808)" />
  <g
     style="display:inline;enable-background:new"
     id="g8025"
     clip-path="url(#clipPath2213)"
     transform="matrix(0.25,0,0,0.25,-414,30.04808)" />
  <g
     style="display:inline;enable-background:new"
     id="g8035"
     clip-path="url(#clipPath2213)"
     transform="matrix(0.25,0,0,0.25,-404,30.04808)" />
  <g
     style="display:inline;enable-background:new"
     id="g8045"
     clip-path="url(#clipPath2213)"
     transform="matrix(0.25,0,0,0.25,-394,30.04808)" />
  <g
     style="display:inline;enable-background:new"
     id="g8055"
     clip-path="url(#clipPath2213)"
     transform="matrix(0.25,0,0,0.25,-384,30.04808)" />
  <path
     d="M 27.900391 11 C 25.159845 11 23 13.159845 23 15.900391 L 23 33.875 L 105 33.875 L 105 15.900391 C 105 13.159845 102.84016 11 100.09961 11 L 27.900391 11 z "
     style="fill:#3d3846;stroke:none;stroke-width:3;stroke-miterlimit:4;stroke-dasharray:none;stroke-dashoffset:50;stroke-opacity:1;paint-order:fill markers stroke"
     id="rect1081" />
  <path
     transform="scale(-1)"
     id="path1077"
     d="M -100.09961 -116 C -104.45026 -116 -108 -112.45026 -108 -108.09961 L -108 -15.900391 C -108 -11.549736 -104.45026 -8 -100.09961 -8 L -27.900391 -8 C -23.549736 -8 -20 -11.549736 -20 -15.900391 L -20 -108.09961 C -20 -112.45026 -23.549736 -116 -27.900391 -116 L -100.09961 -116 z M -100.09961 -113 L -27.900391 -113 C -25.159845 -113 -23 -110.84016 -23 -108.09961 L -23 -15.900391 C -23 -13.159845 -25.159845 -11 -27.900391 -11 L -100.09961 -11 C -102.84016 -11 -105 -13.159845 -105 -15.900391 L -105 -108.09961 C -105 -110.84016 -102.84016 -113 -100.09961 -113 z "
     style="color:#000000;font-style:normal;font-variant:normal;font-weight:normal;font-stretch:normal;font-size:medium;line-height:normal;font-family:sans-serif;font-variant-ligatures:normal;font-variant-position:normal;font-variant-caps:normal;font-variant-numeric:normal;font-variant-alternates:normal;font-variant-east-asian:normal;font-feature-settings:normal;font-variation-settings:normal;text-indent:0;text-align:start;text-decoration:none;text-decoration-line:none;text-decoration-style:solid;text-decoration-color:#000000;letter-spacing:normal;word-spacing:normal;text-transform:none;writing-mode:lr-tb;direction:ltr;text-orientation:mixed;dominant-baseline:auto;baseline-shift:baseline;text-anchor:start;white-space:normal;shape-padding:0;shape-margin:0;inline-size:0;clip-rule:nonzero;display:inline;overflow:visible;visibility:visible;isolation:auto;mix-blend-mode:normal;color-interpolation:sRGB;color-interpolation-filters:linearRGB;solid-color:#000000;solid-opacity:1;vector-effect:none;fill:#3584e4;fill-opacity:1;fill-rule:nonzero;stroke:none;stroke-width:3;stroke-linecap:butt;stroke-linejoin:miter;stroke-miterlimit:4;stroke-dasharray:none;stroke-dashoffset:0;stroke-opacity:1;marker:none;paint-order:normal;color-rendering:auto;image-rendering:auto;shape-rendering:auto;text-rendering:auto;enable-background:accumulate;stop-color:#000000;stop-opacity:1;opacity:1" />
  <path
     id="path1097"
     overflow="visible"
     font-family="sans-serif"
     font-weight="400"
     style="color:#bebebe;line-height:normal;font-variant-ligatures:normal;font-variant-position:normal;font-variant-caps:normal;font-variant-numeric:normal;font-variant-alternates:normal;font-feature-settings:normal;text-indent:0;text-align:start;text-decoration:none;text-decoration-line:none;text-decoration-style:solid;text-decoration-color:#000000;text-transform:none;text-orientation:mixed;shape-padding:0;isolation:auto;mix-blend-mode:normal;fill:#f6f5f4;stroke-width:0.999999;marker:none"
     d="M 32.764405,14.875387 A 1.7384284,1.7384284 0 0 0 31.5533,17.856791 l 4.566272,4.566272 -4.566272,4.566272 a 1.7384284,1.7384284 0 1 0 2.456979,2.456979 l 5.794761,-5.794761 a 1.7384284,1.7384284 0 0 0 0,-2.456979 l -5.794761,-5.794761 a 1.7384284,1.7384284 0 0 0 -1.245874,-0.524426 z" />
</svg>

<?xml version="1.0" encoding="UTF-8"?>
<svg width="128" height="128" enable-background="new" version="1.0" viewBox="0 0 128 128" xmlns="http://www.w3.org/2000/svg" xmlns:xlink="http://www.w3.org/1999/xlink">
 <title>Adwaita Icon Template</title>
 <defs>
  <clipPath>
   <rect x="160" y="-188" width="16" height="56" rx="8" ry="8" enable-background="new" fill="none" stroke="#000" style="paint-order:normal"/>
  </clipPath>
  <linearGradient id="a" x1="28" x2="116" y1="-276" y2="-276" gradientTransform="translate(-136 170)" gradientUnits="userSpaceOnUse">
   <stop stop-color="#1a5fb4" offset="0"/>
   <stop stop-color="#3584e4" offset=".045455"/>
   <stop stop-color="#1a5fb4" offset=".090909"/>
   <stop stop-color="#1a5fb4" offset=".90909"/>
   <stop stop-color="#3584e4" offset=".95455"/>
   <stop stop-color="#1a5fb4" offset="1"/>
  </linearGradient>
  <clipPath>
   <rect width="192" height="152"/>
  </clipPath>
 </defs>
 <rect transform="scale(-1)" x="-108" y="-122" width="88" height="40" rx="8" ry="8" fill="url(#a)" style="paint-order:normal"/>
 <g transform="translate(0,-172)" display="none">
  <g display="inline" enable-background="new">
   <rect x="9.2651e-8" y="172" width="128" height="128" display="inline" enable-background="accumulate" fill="#f0f0f0"/>
   <g fill="none">
    <g stroke="#000" stroke-dasharray="0.99, 0.99" stroke-width=".99">
     <circle cx="64" cy="236" r="59.504" display="inline" enable-background="new" opacity=".1" style="paint-order:normal"/>
     <rect x="20.495" y="180.49" width="87.01" height="111.01" rx="8.701" ry="7.9293" display="inline" enable-background="new" opacity=".1" style="paint-order:normal"/>
     <rect x="12.495" y="184.5" width="103.01" height="103.01" rx="7.9238" ry="7.9238" display="inline" enable-background="new" opacity=".1" style="paint-order:normal"/>
     <rect x="8.495" y="200.49" width="111.01" height="87.01" rx="7.9293" ry="8.701" display="inline" enable-background="new" opacity=".1" style="paint-order:normal"/>
    </g>
    <path d="m2.6203e-5 289h128" display="inline" enable-background="new" stroke="#62a0ea" stroke-width="2"/>
   </g>
  </g>
 </g>
 <rect transform="scale(-1)" x="-108" y="-116" width="88" height="108" rx="8" ry="8" fill="#241f31" style="paint-order:normal"/>
 <path d="m23 34.145v30.82h82v-30.82z" fill="#3d3846" style="paint-order:fill markers stroke"/>
 <path d="m27.047 10.73c-2.8053 0-5.0162 2.2109-5.0162 5.0162v18.399h83.937v-18.399c0-2.8053-2.2109-5.0162-5.0162-5.0162z" fill="#3584e4" style="paint-order:fill markers stroke"/>
 <path transform="scale(-1)" d="m-100.1-116c-4.3506 0-7.9004 3.5497-7.9004 7.9004v92.199c0 4.3507 3.5497 7.9004 7.9004 7.9004h72.199c4.3507 0 7.9004-3.5497 7.9004-7.9004v-92.199c0-4.3506-3.5497-7.9004-7.9004-7.9004h-72.199zm0 3h72.199c2.7405 0 4.9004 2.1598 4.9004 4.9004v92.199c0 2.7405-2.1598 4.9004-4.9004 4.9004h-72.199c-2.7406 0-4.9004-2.1598-4.9004-4.9004v-92.199c0-2.7406 2.1598-4.9004 4.9004-4.9004z" color="#000000" color-rendering="auto" dominant-baseline="auto" enable-background="accumulate" fill="#3584e4" image-rendering="auto" shape-rendering="auto" solid-color="#000000" stop-color="#000000" style="font-feature-settings:normal;font-variant-alternates:normal;font-variant-caps:normal;font-variant-east-asian:normal;font-variant-ligatures:normal;font-variant-numeric:normal;font-variant-position:normal;font-variation-settings:normal;inline-size:0;isolation:auto;mix-blend-mode:normal;paint-order:normal;shape-margin:0;shape-padding:0;text-decoration-color:#000000;text-decoration-line:none;text-decoration-style:solid;text-indent:0;text-orientation:mixed;text-transform:none;white-space:normal"/>
 <path d="m32.764 14.875a1.7384 1.7384 0 0 0-1.2111 2.9814l4.5663 4.5663-4.5663 4.5663a1.7384 1.7384 0 1 0 2.457 2.457l5.7948-5.7948a1.7384 1.7384 0 0 0 0-2.457l-5.7948-5.7948a1.7384 1.7384 0 0 0-1.2459-0.52443z" color="#bebebe" fill="#f6f5f4" font-family="sans-serif" font-weight="400" overflow="visible" style="font-feature-settings:normal;font-variant-alternates:normal;font-variant-caps:normal;font-variant-ligatures:normal;font-variant-numeric:normal;font-variant-position:normal;isolation:auto;mix-blend-mode:normal;shape-padding:0;text-decoration-color:#000000;text-decoration-line:none;text-decoration-style:solid;text-indent:0;text-orientation:mixed;text-transform:none"/>
 <path d="m27.717 72.145v4h32.566v-4zm0 8v4h66.566v-4zm0 8v4h52.566v-4zm0 8v4h60.566v-4z" fill="#fff" opacity=".3"/>
</svg>
